Papirus/24x24/apps/distributor-logo-knoppix.svg

<svg width="24" height="24" version="1.1" xmlns="http://www.w3.org/2000/svg">
 <path d="m5 10.5s-1-1-2-3c-0.210818-0.421637 0-1 1-1 3 2 7 4 7 4h2s4-2 7-4c0.467233 0.062571 1.210819 0.578363 1 1-1 2-2 3-2 3l-7 1z" style="opacity:.2"/>
 <path d="m10 17.5h4l4 2s1-1 3-1c1 1 1 2 1 2l-3 1h-4l-3-2-3 2h-4l-3-1s0-2 1-2c2 0 3 1 3 1z" style="opacity:.2"/>
 <path d="m6 17h12l1 2s1-1 2-1 1 2 1 2l-3 1h-4l-3-2-3 2h-4l-3-1s0-2 1-2 2 1 2 1z" style="fill:#f77d00"/>
 <path d="m14 22.5h6c0-2-2.340068-2.850324-4-3-1.484688-0.133874-4 2-4 2s-3.241604-2.360924-5-2c-1.385332 0.28435-3 1-3 3h6l2-1z" style="opacity:.2"/>
 <path d="m14 22h6c0-2-2.340068-2.850324-4-3-1.484688-0.133874-4 2-4 2s-3.241604-2.360924-5-2c-1.385332 0.28435-3 1-3 3h6l2-1z" style="fill:#eab108"/>
 <path d="m6 17-1 2s-1-1-2-1-1 2-1 2l0.04297 0.01367c0.067367-0.590935 0.270223-1.51367 0.95703-1.51367 1 0 2 1 2 1l1-2h12l1 2s1-1 2-1c0.686807 0 0.889663 0.922735 0.957031 1.513672l0.042969-0.013672s0-2-1-2-2 1-2 1l-1-2z" style="fill:#ffffff;opacity:.1"/>
 <path d="M 7.345703,18.962891 C 7.225369,18.965425 7.1099,18.977442 7,19 5.614668,19.28435 4,20 4,22 h 0.05273 c 0.251845,-1.614305 1.687174,-2.241356 2.947266,-2.5 1.408856,-0.289178 3.693188,1.119816 4.576172,1.710938 L 12,21 C 12,21 9.15071,18.924877 7.345703,18.962891 Z M 12,21 12.384766,21.193359 C 13.13304,20.615774 14.858407,19.397063 16,19.5 c 1.513374,0.136461 3.586138,0.858481 3.941406,2.5 H 20 c 0,-2 -2.340068,-2.850324 -4,-3 -1.484688,-0.133874 -4,2 -4,2 z" style="fill:#ffffff;opacity:.2"/>
 <path d="m5 10s-1-1-2-3c-0.210818-0.421637 0-1 1-1 3 2 7 4 7 4h2s4-2 7-4c0.467233 0.062571 1.210819 0.578363 1 1-1 2-2 3-2 3l-7 1z" style="fill:#4f4f4f"/>
 <path d="m4 6c-0.960526 0-1.181692 0.5314877-1.011719 0.9472656 0.118628-0.2484388 0.427146-0.4472656 1.011719-0.4472656 3 2 7 4 7 4h2s4-2 7-4c0.323624 0.043339 0.761594 0.3072014 0.941406 0.6035156 0.019765-0.0387621 0.038822-0.0639716 0.058594-0.1035156 0.210819-0.421637-0.532767-0.937429-1-1-3 2-7 4-7 4h-2s-4-2-7-4z" style="fill:#ffffff;opacity:.1"/>
 <path d="m12 1.5c-2.088154 0-4 1.784-4 4 0 2.4582508-0.725591 3.825922-1.462891 5h-4.537109v1c1 1 2 1 2 1 1 0 1 1.215078 1 2 0 3.8659 3.134007 7 7 7s7-3.1341 7-7c0-0.784922-0.156524-1.414674-0.390625-1.982422 0 0 2.390625-0.017578 3.390625-1.017578v-1h-4.537109c-0.7373-1.174078-1.462891-2.5417492-1.462891-5 0-2.216-1.911846-4-4-4z" style="opacity:.2"/>
 <path d="m12 1c-2.088154 0-4 1.784-4 4 0 2.4582508-0.725591 3.825922-1.462891 5h-4.537109v1c1 1 2 1 2 1 1 0 1 1.215078 1 2 0 3.8659 3.134007 7 7 7s7-3.1341 7-7c0-0.784922-0.156524-1.414674-0.390625-1.982422 0 0 2.390625-0.017578 3.390625-1.017578v-1h-4.537109c-0.7373-1.174078-1.462891-2.5417492-1.462891-5 0-2.216-1.911846-4-4-4z" style="fill:#cbcbcb"/>
 <path d="m12 7.4999c-1.193201 0-1.999777 1.0704-1.999777 2.4 0 2.9999-2.000124 3.2999-2.000124 5.3999 0 2.3194 1.790817 4.1999 3.999901 4.1999s3.999901-1.8805 3.999901-4.1999c0-2.1-1.999678-2.4-1.999678-5.3999 0-1.3296-0.807022-2.4-2.000223-2.4z" style="opacity:.1"/>
 <path d="m12 7c-1.193201 0-1.999777 1.0704-1.999777 2.4 0 2.9999-2.000124 3.2999-2.000124 5.3999 0 2.3194 1.790817 4.1999 3.999901 4.1999s3.999901-1.8805 3.999901-4.1999c0-2.1-1.999678-2.4-1.999678-5.3999 0-1.3296-0.807022-2.4-2.000223-2.4z" style="fill:#ffffff"/>
 <circle cx="10.500223" cy="5.999537" r="1.5" style="opacity:.1"/>
 <circle cx="10.500223" cy="5.499537" r="1.5" style="fill:#ffffff"/>
 <circle cx="10.500223" cy="5.499537" r=".5" style="fill:#323232"/>
 <circle cx="13.500223" cy="5.999537" r="1.5" style="opacity:.1"/>
 <circle cx="13.500223" cy="5.499537" r="1.5" style="fill:#ffffff"/>
 <path d="m13.99995 7.6997c0 1.3806-0.895408 2.8-1.99995 2.8s-1.99995-1.4194-1.99995-2.8z" style="opacity:.1"/>
 <path d="m13.99995 7.1997c0 1.3806-0.895408 2.8-1.99995 2.8s-1.99995-1.4194-1.99995-2.8z" style="fill:#f77d00"/>
 <circle cx="13.500223" cy="5.499537" r=".5" style="fill:#323232"/>
 <path d="m13.99995 7.2495c0 0.2499-0.895408 1.7499-1.99995 1.7499s-1.99995-1.5-1.99995-1.7499c0-0.6904 0.895408-1.25 1.99995-1.25s1.99995 0.5596 1.99995 1.25z" style="fill:#eab108"/>
 <path d="m12 1c-2.088154 0-4 1.784-4 4 0 2.4582508-0.725591 3.825922-1.462891 5h-4.537109v0.5h4.537109c0.7373-1.174078 1.462891-2.5417492 1.462891-5 0-2.216 1.911846-4 4-4s4 1.784 4 4c0 2.4582508 0.725591 3.825922 1.462891 5h4.537109v-0.5h-4.537109c-0.7373-1.174078-1.462891-2.5417492-1.462891-5 0-2.216-1.911846-4-4-4zm6.763672 11.509766c-0.04342 0.0013-0.154297 0.0078-0.154297 0.0078 0.207188 0.502478 0.347978 1.060412 0.378906 1.72461 0.002787-0.081155 0.011719-0.160331 0.011719-0.242176 0-0.572549-0.100404-1.04665-0.236328-1.490234z" style="fill:#ffffff;opacity:.2"/>
</svg>

<svg xmlns="http://www.w3.org/2000/svg" width="24" height="24" version="1.1">
 <path style="opacity:0.2" d="M 10,17.5 H 14 L 18,19.5 C 18,19.5 19,18.5 21,18.5 22,19.5 22,20.5 22,20.5 L 19,21.5 H 15 L 12,19.5 9,21.5 H 5 L 2,20.5 C 2,20.5 2,18.5 3,18.5 5,18.5 6,19.5 6,19.5 Z"/>
 <path style="fill:#f77d00" d="M 6,17 H 18 L 19,19 C 19,19 20,18 21,18 22,18 22,20 22,20 L 19,21 H 15 L 12,19 9,21 H 5 L 2,20 C 2,20 2,18 3,18 4,18 5,19 5,19 Z"/>
 <path style="opacity:0.2" d="M 14,22.5 H 20 C 20,20.5 17.66,19.65 16,19.5 14.515,19.366 12,21.5 12,21.5 12,21.5 8.7584,19.139 7,19.5 5.6147,19.784 4,20.5 4,22.5 H 10 L 12,21.5 Z"/>
 <path style="fill:#eab108" d="M 14,22 H 20 C 20,20 17.66,19.15 16,19 14.515,18.866 12,21 12,21 12,21 8.7584,18.639 7,19 5.6147,19.284 4,20 4,22 H 10 L 12,21 Z"/>
 <path style="opacity:0.2;fill:#ffffff" d="M 6,17 5,19 C 5,19 4,18 3,18 2,18 2,20 2,20 L 2.043,20.014 C 2.1103,19.423 2.3132,18.5 3,18.5 4,18.5 5,19.5 5,19.5 L 6,17.5 H 18 L 19,19.5 C 19,19.5 20,18.5 21,18.5 21.687,18.5 21.89,19.423 21.957,20.014 L 22,20 C 22,20 22,18 21,18 20,18 19,19 19,19 L 18,17 Z"/>
 <path style="opacity:0.2;fill:#ffffff" d="M 7.3457,18.963 C 7.2254,18.965 7.1099,18.977 7,19 5.6147,19.284 4,20 4,22 H 4.0527 C 4.3046,20.386 5.7399,19.759 7,19.5 8.4089,19.211 10.693,20.62 11.576,21.211 L 12,21 C 12,21 9.1507,18.925 7.3457,18.963 Z M 12,21 12.385,21.193 C 13.133,20.616 14.858,19.397 16,19.5 17.513,19.636 19.586,20.358 19.941,22 H 20 C 20,20 17.66,19.15 16,19 14.515,18.866 12,21 12,21 Z"/>
 <path style="opacity:0.2" d="M 5,10.5 C 5,10.5 4,9.5 3,7.5 3,7.0689 3,6.5 4,6.5 7,8.5 11,10.5 11,10.5 H 13 C 13,10.5 17,8.5 20,6.5 20.467,6.5626 21,7.0615 21,7.5 20,9.5 19,10.5 19,10.5 L 12,11.5 Z"/>
 <path style="fill:#4f4f4f" d="M 5,10 C 5,10 4,9 3,7 3,6.5689 3,6 4,6 7,8 11,10 11,10 H 13 C 13,10 17,8 20,6 20.467,6.0626 21,6.5615 21,7 20,9 19,10 19,10 L 12,11 Z"/>
 <path style="opacity:0.1;fill:#ffffff" d="M 4,6 C 3,6 3,6.5689 3,7 3.0148,7.0296 3.0282,7.0489 3.043,7.0781 3.1108,6.7711 3.3145,6.5 4,6.5 7,8.5 11,10.5 11,10.5 H 13 C 13,10.5 17,8.5 20,6.5 20.349,6.5468 20.735,6.8373 20.908,7.1641 20.939,7.1035 20.969,7.0625 21,7 21,6.5615 20.467,6.0626 20,6 17,8 13,10 13,10 H 11 C 11,10 7,8 4,6 Z"/>
 <path style="opacity:0.2" d="M 12,1.5 C 9.9118,1.5 8,3.284 8,5.5 8,7.9583 7.2744,9.3259 6.5371,10.5 H 2 V 11.5 C 3,12.5 4,12.5 4,12.5 5,12.5 5,13.715 5,14.5 5,18.366 8.134,21.5 12,21.5 15.866,21.5 19,18.366 19,14.5 19,13.715 18.843,13.085 18.609,12.518 18.609,12.518 21,12.5 22,11.5 V 10.5 H 17.463 C 16.726,9.3259 16,7.9583 16,5.5 16,3.284 14.088,1.5 12,1.5 Z"/>
 <path style="fill:#cbcbcb" d="M 12,1 C 9.9118,1 8,2.784 8,5 8,7.4583 7.2744,8.8259 6.5371,10 H 2 V 11 C 3,12 4,12 4,12 5,12 5,13.215 5,14 5,17.866 8.134,21 12,21 15.866,21 19,17.866 19,14 19,13.215 18.843,12.585 18.609,12.018 18.609,12.018 21,12 22,11 V 10 H 17.463 C 16.726,8.8259 16,7.4583 16,5 16,2.784 14.088,1 12,1 Z"/>
 <path style="opacity:0.1" d="M 12,7.4999 C 10.807,7.4999 10,8.5703 10,9.8999 10,12.9 8.0001,13.2 8.0001,15.3 8.0001,17.619 9.7909,19.5 12,19.5 14.209,19.5 16,17.619 16,15.3 16,13.2 14,12.9 14,9.8999 14,8.5703 13.193,7.4999 12,7.4999 Z"/>
 <path style="fill:#ffffff" d="M 12,7 C 10.807,7 10,8.0704 10,9.4 10,12.4 8.0001,12.7 8.0001,14.8 8.0001,17.119 9.7909,19 12,19 14.209,19 16,17.119 16,14.8 16,12.7 14,12.4 14,9.4 14,8.0704 13.193,7 12,7 Z"/>
 <circle style="opacity:0.1" cx="10.5" cy="6" r="1.5"/>
 <circle style="fill:#ffffff" cx="10.5" cy="5.5" r="1.5"/>
 <circle style="fill:#323232" cx="10.5" cy="5.5" r=".5"/>
 <circle style="opacity:0.1" cx="13.5" cy="6" r="1.5"/>
 <circle style="fill:#ffffff" cx="13.5" cy="5.5" r="1.5"/>
 <path style="opacity:0.1" d="M 14,7.6997 C 14,9.0803 13.105,10.5 12,10.5 10.895,10.5 10,9.0803 10,7.6997 Z"/>
 <path style="fill:#f77d00" d="M 14,7.1997 C 14,8.5803 13.105,9.9997 12,9.9997 10.895,9.9997 10,8.5803 10,7.1997 Z"/>
 <circle style="fill:#323232" cx="13.5" cy="5.5" r=".5"/>
 <path style="fill:#eab108" d="M 14,7.2501 C 14,7.5 13.105,9 12,9 10.895,9 10,7.5 10,7.2501 10,6.5597 10.895,6.0001 12,6.0001 13.105,6.0001 14,6.5597 14,7.2501 Z"/>
 <path style="opacity:0.2;fill:#ffffff" d="M 12,1 C 9.9118,1 8,2.784 8,5 8,7.4583 7.2744,8.8259 6.5371,10 H 2 V 10.5 H 6.5371 C 7.2744,9.3259 8,7.9583 8,5.5 8,3.284 9.9118,1.5 12,1.5 14.088,1.5 16,3.284 16,5.5 16,7.9583 16.726,9.3259 17.463,10.5 H 22 V 10 H 17.463 C 16.726,8.8259 16,7.4583 16,5 16,2.784 14.088,1 12,1 Z M 18.764,12.51 C 18.72,12.511 18.609,12.518 18.609,12.518 18.817,13.02 18.957,13.578 18.988,14.242 18.991,14.161 19,14.082 19,14 19,13.427 18.9,12.953 18.764,12.51 Z"/>
</svg>
